X:26
T:In the City Garden
O:russia
R:hornpipe
S:A Russian song popularized by an old Russian film; learned from a local Russian singer (in Izhevsk)
Z:From: Larry Sanger <larry@NUPEDIA.COM> irtrad-l 2001-5-08
N:Obviously, not a hornpipe, but a nice tune with a pronounced hornpipe swing
Z:Transcrit et/ou corrig par Michel BELLON - 2006-06-18
Z:Pour toute observation mailto:galouvielle@free.fr
M:4/4
K:F
AAdf fe^de | fe=d^c d4 | AAdf ag^fg | agde =f4 |
agfe gfed | fed^c d4 | ed=cB ABed | Bd^ce d3f ||
fe^de a=ddd | d^ccc eddd | =cBA^G Adef |1 fed^c d3f :| 2 fed^c d4 ||
%%footer $D   Galouvielle-MBe 2008 \nmarch (russia)
